; GCODE Generated by cam.openbuilds.com on 2024-09-27 
G21 ; mm-mode
; Operation 0: CNC: Vector (no offset)
; Endmill Diameter: 1

G0 Z2; move to z-safe height
G0 F1000 X0.1764 Y0.1764

G0 Z0
G1 F300 Z-1.0000; Direct Plunge
 G1 F1000 X25.5764 Y0.1764 Z-1.0000 S1000
G1 F1000 X25.5764 Y0.2117 Z-1.0000 S1000
G1 F1000 X25.5763 Y0.2471 Z-1.0000 S1000
G1 F1000 X25.5762 Y0.2824 Z-1.0000 S1000
G1 F1000 X25.5760 Y0.3177 Z-1.0000 S1000
G1 F1000 X25.5758 Y0.3530 Z-1.0000 S1000
G1 F1000 X25.5755 Y0.3883 Z-1.0000 S1000
G1 F1000 X25.5752 Y0.4235 Z-1.0000 S1000
G1 F1000 X25.5749 Y0.4588 Z-1.0000 S1000
G1 F1000 X25.5744 Y0.4941 Z-1.0000 S1000
G1 F1000 X25.5740 Y0.5293 Z-1.0000 S1000
G1 F1000 X25.5735 Y0.5645 Z-1.0000 S1000
G1 F1000 X25.5729 Y0.5998 Z-1.0000 S1000
G1 F1000 X25.5723 Y0.6351 Z-1.0000 S1000
G1 F1000 X25.5717 Y0.6704 Z-1.0000 S1000
G1 F1000 X25.5710 Y0.7057 Z-1.0000 S1000
G1 F1000 X25.5702 Y0.7410 Z-1.0000 S1000
G1 F1000 X25.5694 Y0.7763 Z-1.0000 S1000
G1 F1000 X25.5686 Y0.8116 Z-1.0000 S1000
G1 F1000 X25.5677 Y0.8469 Z-1.0000 S1000
G1 F1000 X25.5668 Y0.8821 Z-1.0000 S1000
G1 F1000 X25.5658 Y0.9173 Z-1.0000 S1000
G1 F1000 X25.5648 Y0.9526 Z-1.0000 S1000
G1 F1000 X25.5637 Y0.9878 Z-1.0000 S1000
G1 F1000 X25.5625 Y1.0230 Z-1.0000 S1000
G1 F1000 X25.5614 Y1.0583 Z-1.0000 S1000
G1 F1000 X25.5601 Y1.0936 Z-1.0000 S1000
G1 F1000 X25.5589 Y1.1289 Z-1.0000 S1000
G1 F1000 X25.5575 Y1.1642 Z-1.0000 S1000
G1 F1000 X25.5562 Y1.1995 Z-1.0000 S1000
G1 F1000 X25.5547 Y1.2347 Z-1.0000 S1000
G1 F1000 X25.5533 Y1.2700 Z-1.0000 S1000
G1 F1000 X25.5518 Y1.3052 Z-1.0000 S1000
G1 F1000 X25.5502 Y1.3404 Z-1.0000 S1000
G1 F1000 X25.5486 Y1.3756 Z-1.0000 S1000
G1 F1000 X25.5469 Y1.4108 Z-1.0000 S1000
G1 F1000 X25.5452 Y1.4461 Z-1.0000 S1000
G1 F1000 X25.5434 Y1.4813 Z-1.0000 S1000
G1 F1000 X25.5416 Y1.5166 Z-1.0000 S1000
G1 F1000 X25.5398 Y1.5519 Z-1.0000 S1000
G1 F1000 X25.5379 Y1.5871 Z-1.0000 S1000
G1 F1000 X25.5359 Y1.6224 Z-1.0000 S1000
G1 F1000 X25.5339 Y1.6576 Z-1.0000 S1000
G1 F1000 X25.5319 Y1.6928 Z-1.0000 S1000
G1 F1000 X25.5298 Y1.7280 Z-1.0000 S1000
G1 F1000 X25.5276 Y1.7632 Z-1.0000 S1000
G1 F1000 X25.5254 Y1.7984 Z-1.0000 S1000
G1 F1000 X25.5232 Y1.8335 Z-1.0000 S1000
G1 F1000 X25.5209 Y1.8687 Z-1.0000 S1000
G1 F1000 X25.5186 Y1.9040 Z-1.0000 S1000
G1 F1000 X25.5162 Y1.9392 Z-1.0000 S1000
G1 F1000 X25.5137 Y1.9745 Z-1.0000 S1000
G1 F1000 X25.5112 Y2.0097 Z-1.0000 S1000
G1 F1000 X25.5087 Y2.0449 Z-1.0000 S1000
G1 F1000 X25.5061 Y2.0801 Z-1.0000 S1000
G1 F1000 X25.5035 Y2.1152 Z-1.0000 S1000
G1 F1000 X25.5008 Y2.1504 Z-1.0000 S1000
G1 F1000 X25.4981 Y2.1855 Z-1.0000 S1000
G1 F1000 X25.4953 Y2.2207 Z-1.0000 S1000
G1 F1000 X25.4925 Y2.2558 Z-1.0000 S1000
G1 F1000 X25.4896 Y2.2910 Z-1.0000 S1000
G1 F1000 X25.4867 Y2.3262 Z-1.0000 S1000
G1 F1000 X25.4837 Y2.3614 Z-1.0000 S1000
G1 F1000 X25.4807 Y2.3966 Z-1.0000 S1000
G1 F1000 X25.4776 Y2.4317 Z-1.0000 S1000
G1 F1000 X25.4745 Y2.4669 Z-1.0000 S1000
G1 F1000 X25.4714 Y2.5020 Z-1.0000 S1000
G1 F1000 X25.4681 Y2.5371 Z-1.0000 S1000
G1 F1000 X25.4649 Y2.5722 Z-1.0000 S1000
G1 F1000 X25.4616 Y2.6073 Z-1.0000 S1000
G1 F1000 X25.4582 Y2.6424 Z-1.0000 S1000
G1 F1000 X25.4548 Y2.6775 Z-1.0000 S1000
G1 F1000 X25.4514 Y2.7126 Z-1.0000 S1000
G1 F1000 X25.4478 Y2.7478 Z-1.0000 S1000
G1 F1000 X25.4443 Y2.7829 Z-1.0000 S1000
G1 F1000 X25.4407 Y2.8180 Z-1.0000 S1000
G1 F1000 X25.4370 Y2.8531 Z-1.0000 S1000
G1 F1000 X25.4333 Y2.8882 Z-1.0000 S1000
G1 F1000 X25.4296 Y2.9233 Z-1.0000 S1000
G1 F1000 X25.4258 Y2.9584 Z-1.0000 S1000
G1 F1000 X25.4220 Y2.9934 Z-1.0000 S1000
G1 F1000 X25.4181 Y3.0284 Z-1.0000 S1000
G1 F1000 X25.4141 Y3.0635 Z-1.0000 S1000
G1 F1000 X25.4101 Y3.0985 Z-1.0000 S1000
G1 F1000 X25.4061 Y3.1336 Z-1.0000 S1000
G1 F1000 X25.4020 Y3.1687 Z-1.0000 S1000
G1 F1000 X25.3979 Y3.2037 Z-1.0000 S1000
G1 F1000 X25.3937 Y3.2388 Z-1.0000 S1000
G1 F1000 X25.3894 Y3.2738 Z-1.0000 S1000
G1 F1000 X25.3852 Y3.3088 Z-1.0000 S1000
G1 F1000 X25.3808 Y3.3439 Z-1.0000 S1000
G1 F1000 X25.3765 Y3.3788 Z-1.0000 S1000
G1 F1000 X25.3720 Y3.4138 Z-1.0000 S1000
G1 F1000 X25.3676 Y3.4488 Z-1.0000 S1000
G1 F1000 X25.3630 Y3.4837 Z-1.0000 S1000
G1 F1000 X25.3585 Y3.5187 Z-1.0000 S1000
G1 F1000 X25.3538 Y3.5538 Z-1.0000 S1000
G1 F1000 X25.3492 Y3.5888 Z-1.0000 S1000
G1 F1000 X25.3444 Y3.6237 Z-1.0000 S1000
G1 F1000 X25.3397 Y3.6587 Z-1.0000 S1000
G1 F1000 X25.3349 Y3.6937 Z-1.0000 S1000
G1 F1000 X25.3300 Y3.7286 Z-1.0000 S1000
G1 F1000 X25.3251 Y3.7635 Z-1.0000 S1000
G1 F1000 X25.3201 Y3.7984 Z-1.0000 S1000
G1 F1000 X25.3151 Y3.8333 Z-1.0000 S1000
G1 F1000 X25.3101 Y3.8682 Z-1.0000 S1000
G1 F1000 X25.3050 Y3.9031 Z-1.0000 S1000
G1 F1000 X25.2998 Y3.9381 Z-1.0000 S1000
G1 F1000 X25.2946 Y3.9730 Z-1.0000 S1000
G1 F1000 X25.2893 Y4.0079 Z-1.0000 S1000
G1 F1000 X25.2840 Y4.0428 Z-1.0000 S1000
G1 F1000 X25.2787 Y4.0777 Z-1.0000 S1000
G1 F1000 X25.2733 Y4.1125 Z-1.0000 S1000
G1 F1000 X25.2678 Y4.1474 Z-1.0000 S1000
G1 F1000 X25.2623 Y4.1822 Z-1.0000 S1000
G1 F1000 X25.2568 Y4.2170 Z-1.0000 S1000
G1 F1000 X25.2512 Y4.2518 Z-1.0000 S1000
G1 F1000 X25.2456 Y4.2866 Z-1.0000 S1000
G1 F1000 X25.2399 Y4.3215 Z-1.0000 S1000
G1 F1000 X25.2341 Y4.3563 Z-1.0000 S1000
G1 F1000 X25.2283 Y4.3912 Z-1.0000 S1000
G1 F1000 X25.2225 Y4.4260 Z-1.0000 S1000
G1 F1000 X25.2166 Y4.4608 Z-1.0000 S1000
G1 F1000 X25.2107 Y4.4956 Z-1.0000 S1000
G1 F1000 X25.2047 Y4.5303 Z-1.0000 S1000
G1 F1000 X25.1987 Y4.5651 Z-1.0000 S1000
G1 F1000 X25.1926 Y4.5998 Z-1.0000 S1000
G1 F1000 X25.1865 Y4.6345 Z-1.0000 S1000
G1 F1000 X25.1803 Y4.6692 Z-1.0000 S1000
G1 F1000 X25.1741 Y4.7039 Z-1.0000 S1000
G1 F1000 X25.1678 Y4.7387 Z-1.0000 S1000
G1 F1000 X25.1615 Y4.7734 Z-1.0000 S1000
G1 F1000 X25.1551 Y4.8082 Z-1.0000 S1000
G1 F1000 X25.1487 Y4.8429 Z-1.0000 S1000
G1 F1000 X25.1422 Y4.8776 Z-1.0000 S1000
G1 F1000 X25.1357 Y4.9122 Z-1.0000 S1000
G1 F1000 X25.1291 Y4.9469 Z-1.0000 S1000
G1 F1000 X25.1225 Y4.9815 Z-1.0000 S1000
G1 F1000 X25.1159 Y5.0162 Z-1.0000 S1000
G1 F1000 X25.1092 Y5.0508 Z-1.0000 S1000
G1 F1000 X25.1024 Y5.0854 Z-1.0000 S1000
G1 F1000 X25.0956 Y5.1200 Z-1.0000 S1000
G1 F1000 X25.0888 Y5.1546 Z-1.0000 S1000
G1 F1000 X25.0819 Y5.1893 Z-1.0000 S1000
G1 F1000 X25.0749 Y5.2239 Z-1.0000 S1000
G1 F1000 X25.0679 Y5.2585 Z-1.0000 S1000
G1 F1000 X25.0609 Y5.2930 Z-1.0000 S1000
G1 F1000 X25.0538 Y5.3276 Z-1.0000 S1000
G1 F1000 X25.0466 Y5.3621 Z-1.0000 S1000
G1 F1000 X25.0394 Y5.3967 Z-1.0000 S1000
G1 F1000 X25.0322 Y5.4312 Z-1.0000 S1000
G1 F1000 X25.0249 Y5.4657 Z-1.0000 S1000
G1 F1000 X25.0176 Y5.5002 Z-1.0000 S1000
G1 F1000 X25.0102 Y5.5347 Z-1.0000 S1000
G1 F1000 X25.0028 Y5.5692 Z-1.0000 S1000
G1 F1000 X24.9953 Y5.6037 Z-1.0000 S1000
G1 F1000 X24.9878 Y5.6382 Z-1.0000 S1000
G1 F1000 X24.9802 Y5.6727 Z-1.0000 S1000
G1 F1000 X24.9726 Y5.7071 Z-1.0000 S1000
G1 F1000 X24.9649 Y5.7415 Z-1.0000 S1000
G1 F1000 X24.9572 Y5.7760 Z-1.0000 S1000
G1 F1000 X24.9494 Y5.8103 Z-1.0000 S1000
G1 F1000 X24.9416 Y5.8447 Z-1.0000 S1000
G1 F1000 X24.9337 Y5.8791 Z-1.0000 S1000
G1 F1000 X24.9258 Y5.9135 Z-1.0000 S1000
G1 F1000 X24.9179 Y5.9479 Z-1.0000 S1000
G1 F1000 X24.9098 Y5.9823 Z-1.0000 S1000
G1 F1000 X24.9018 Y6.0166 Z-1.0000 S1000
G1 F1000 X24.8937 Y6.0510 Z-1.0000 S1000
G1 F1000 X24.8855 Y6.0853 Z-1.0000 S1000
G1 F1000 X24.8773 Y6.1196 Z-1.0000 S1000
G1 F1000 X24.8691 Y6.1539 Z-1.0000 S1000
G1 F1000 X24.8608 Y6.1882 Z-1.0000 S1000
G1 F1000 X24.8524 Y6.2225 Z-1.0000 S1000
G1 F1000 X24.8441 Y6.2567 Z-1.0000 S1000
G1 F1000 X24.8356 Y6.2909 Z-1.0000 S1000
G1 F1000 X24.8271 Y6.3252 Z-1.0000 S1000
G1 F1000 X24.8186 Y6.3595 Z-1.0000 S1000
G1 F1000 X24.8100 Y6.3937 Z-1.0000 S1000
G1 F1000 X24.8014 Y6.4279 Z-1.0000 S1000
G1 F1000 X24.7927 Y6.4621 Z-1.0000 S1000
G1 F1000 X24.7840 Y6.4963 Z-1.0000 S1000
G1 F1000 X24.7752 Y6.5305 Z-1.0000 S1000
G1 F1000 X24.7664 Y6.5646 Z-1.0000 S1000
G1 F1000 X24.7575 Y6.5988 Z-1.0000 S1000
G1 F1000 X24.7486 Y6.6329 Z-1.0000 S1000
G1 F1000 X24.7396 Y6.6670 Z-1.0000 S1000
G1 F1000 X24.7306 Y6.7011 Z-1.0000 S1000
G1 F1000 X24.7215 Y6.7352 Z-1.0000 S1000
G1 F1000 X24.7124 Y6.7693 Z-1.0000 S1000
G1 F1000 X24.7033 Y6.8034 Z-1.0000 S1000
G1 F1000 X24.6940 Y6.8375 Z-1.0000 S1000
G1 F1000 X24.6848 Y6.8715 Z-1.0000 S1000
G1 F1000 X24.6755 Y6.9056 Z-1.0000 S1000
G1 F1000 X24.6662 Y6.9396 Z-1.0000 S1000
G1 F1000 X24.6568 Y6.9736 Z-1.0000 S1000
G1 F1000 X24.6473 Y7.0075 Z-1.0000 S1000
G1 F1000 X24.6378 Y7.0415 Z-1.0000 S1000
G1 F1000 X24.6283 Y7.0755 Z-1.0000 S1000
G1 F1000 X24.6187 Y7.1094 Z-1.0000 S1000
G1 F1000 X24.6091 Y7.1434 Z-1.0000 S1000
G1 F1000 X24.5994 Y7.1774 Z-1.0000 S1000
G1 F1000 X24.5896 Y7.2113 Z-1.0000 S1000
G1 F1000 X24.5799 Y7.2452 Z-1.0000 S1000
G1 F1000 X24.5700 Y7.2791 Z-1.0000 S1000
G1 F1000 X24.5602 Y7.3129 Z-1.0000 S1000
G1 F1000 X24.5503 Y7.3468 Z-1.0000 S1000
G1 F1000 X24.5403 Y7.3806 Z-1.0000 S1000
G1 F1000 X24.5303 Y7.4144 Z-1.0000 S1000
G1 F1000 X24.5202 Y7.4482 Z-1.0000 S1000
G1 F1000 X24.5101 Y7.4820 Z-1.0000 S1000
G1 F1000 X24.5000 Y7.5158 Z-1.0000 S1000
G1 F1000 X24.4898 Y7.5496 Z-1.0000 S1000
G1 F1000 X24.4795 Y7.5834 Z-1.0000 S1000
G1 F1000 X24.4692 Y7.6172 Z-1.0000 S1000
G1 F1000 X24.4589 Y7.6509 Z-1.0000 S1000
G1 F1000 X24.4485 Y7.6846 Z-1.0000 S1000
G1 F1000 X24.4380 Y7.7183 Z-1.0000 S1000
G1 F1000 X24.4276 Y7.7520 Z-1.0000 S1000
G1 F1000 X24.4170 Y7.7856 Z-1.0000 S1000
G1 F1000 X24.4065 Y7.8193 Z-1.0000 S1000
G1 F1000 X24.3958 Y7.8529 Z-1.0000 S1000
G1 F1000 X24.3851 Y7.8866 Z-1.0000 S1000
G1 F1000 X24.3744 Y7.9202 Z-1.0000 S1000
G1 F1000 X24.3636 Y7.9538 Z-1.0000 S1000
G1 F1000 X24.3528 Y7.9874 Z-1.0000 S1000
G1 F1000 X24.3420 Y8.0210 Z-1.0000 S1000
G1 F1000 X24.3311 Y8.0545 Z-1.0000 S1000
G1 F1000 X24.3201 Y8.0880 Z-1.0000 S1000
G1 F1000 X24.3091 Y8.1216 Z-1.0000 S1000
G1 F1000 X24.2981 Y8.1550 Z-1.0000 S1000
G1 F1000 X24.2870 Y8.1885 Z-1.0000 S1000
G1 F1000 X24.2758 Y8.2220 Z-1.0000 S1000
G1 F1000 X24.2646 Y8.2555 Z-1.0000 S1000
G1 F1000 X24.2534 Y8.2889 Z-1.0000 S1000
G1 F1000 X24.2421 Y8.3224 Z-1.0000 S1000
G1 F1000 X24.2308 Y8.3558 Z-1.0000 S1000
G1 F1000 X24.2194 Y8.3892 Z-1.0000 S1000
G1 F1000 X24.2080 Y8.4226 Z-1.0000 S1000
G1 F1000 X24.1965 Y8.4559 Z-1.0000 S1000
G1 F1000 X24.1850 Y8.4893 Z-1.0000 S1000
G1 F1000 X24.1734 Y8.5226 Z-1.0000 S1000
G1 F1000 X24.1618 Y8.5559 Z-1.0000 S1000
G1 F1000 X24.1502 Y8.5892 Z-1.0000 S1000
G1 F1000 X24.1384 Y8.6225 Z-1.0000 S1000
G1 F1000 X24.1267 Y8.6558 Z-1.0000 S1000
G1 F1000 X24.1149 Y8.6890 Z-1.0000 S1000
G1 F1000 X24.1030 Y8.7223 Z-1.0000 S1000
G1 F1000 X24.0911 Y8.7555 Z-1.0000 S1000
G1 F1000 X24.0792 Y8.7887 Z-1.0000 S1000
G1 F1000 X24.0672 Y8.8219 Z-1.0000 S1000
G1 F1000 X24.0552 Y8.8550 Z-1.0000 S1000
G1 F1000 X24.0431 Y8.8882 Z-1.0000 S1000
G1 F1000 X24.0310 Y8.9213 Z-1.0000 S1000
G1 F1000 X24.0188 Y8.9544 Z-1.0000 S1000
G1 F1000 X24.0066 Y8.9875 Z-1.0000 S1000
G1 F1000 X23.9944 Y9.0206 Z-1.0000 S1000
G1 F1000 X23.9820 Y9.0537 Z-1.0000 S1000
G1 F1000 X23.9697 Y9.0867 Z-1.0000 S1000
G1 F1000 X23.9573 Y9.1198 Z-1.0000 S1000
G1 F1000 X23.9448 Y9.1528 Z-1.0000 S1000
G1 F1000 X23.9323 Y9.1858 Z-1.0000 S1000
G1 F1000 X23.9198 Y9.2187 Z-1.0000 S1000
G1 F1000 X23.9072 Y9.2517 Z-1.0000 S1000
G1 F1000 X23.8946 Y9.2846 Z-1.0000 S1000
G1 F1000 X23.8819 Y9.3175 Z-1.0000 S1000
G1 F1000 X23.8692 Y9.3504 Z-1.0000 S1000
G1 F1000 X23.8564 Y9.3833 Z-1.0000 S1000
G1 F1000 X23.8436 Y9.4162 Z-1.0000 S1000
G1 F1000 X23.8307 Y9.4491 Z-1.0000 S1000
G1 F1000 X23.8178 Y9.4819 Z-1.0000 S1000
G1 F1000 X23.8049 Y9.5148 Z-1.0000 S1000
G1 F1000 X23.7919 Y9.5476 Z-1.0000 S1000
G1 F1000 X23.7788 Y9.5803 Z-1.0000 S1000
G1 F1000 X23.7657 Y9.6131 Z-1.0000 S1000
G1 F1000 X23.7526 Y9.6458 Z-1.0000 S1000
G1 F1000 X23.7394 Y9.6785 Z-1.0000 S1000
G1 F1000 X23.7262 Y9.7112 Z-1.0000 S1000
G1 F1000 X23.7129 Y9.7439 Z-1.0000 S1000
G1 F1000 X23.6996 Y9.7766 Z-1.0000 S1000
G1 F1000 X23.6862 Y9.8093 Z-1.0000 S1000
G1 F1000 X23.6728 Y9.8419 Z-1.0000 S1000
G1 F1000 X23.6594 Y9.8745 Z-1.0000 S1000
G1 F1000 X23.6459 Y9.9071 Z-1.0000 S1000
G1 F1000 X23.6323 Y9.9397 Z-1.0000 S1000
G1 F1000 X23.6187 Y9.9723 Z-1.0000 S1000
G1 F1000 X23.6051 Y10.0048 Z-1.0000 S1000
G1 F1000 X23.5914 Y10.0373 Z-1.0000 S1000
G1 F1000 X23.5777 Y10.0698 Z-1.0000 S1000
G1 F1000 X23.5639 Y10.1023 Z-1.0000 S1000
G1 F1000 X23.5501 Y10.1348 Z-1.0000 S1000
G1 F1000 X23.5362 Y10.1672 Z-1.0000 S1000
G1 F1000 X23.5223 Y10.1996 Z-1.0000 S1000
G1 F1000 X23.5083 Y10.2320 Z-1.0000 S1000
G1 F1000 X23.4943 Y10.2644 Z-1.0000 S1000
G1 F1000 X23.4803 Y10.2968 Z-1.0000 S1000
G1 F1000 X23.4662 Y10.3291 Z-1.0000 S1000
G1 F1000 X23.4521 Y10.3614 Z-1.0000 S1000
G1 F1000 X23.4379 Y10.3937 Z-1.0000 S1000
G1 F1000 X23.4237 Y10.4260 Z-1.0000 S1000
G1 F1000 X23.4094 Y10.4583 Z-1.0000 S1000
G1 F1000 X23.3951 Y10.4905 Z-1.0000 S1000
G1 F1000 X23.3807 Y10.5228 Z-1.0000 S1000
G1 F1000 X23.3663 Y10.5550 Z-1.0000 S1000
G1 F1000 X23.3518 Y10.5872 Z-1.0000 S1000
G1 F1000 X23.3373 Y10.6193 Z-1.0000 S1000
G1 F1000 X23.3228 Y10.6515 Z-1.0000 S1000
G1 F1000 X23.3082 Y10.6836 Z-1.0000 S1000
G1 F1000 X23.2936 Y10.7157 Z-1.0000 S1000
G1 F1000 X23.2789 Y10.7478 Z-1.0000 S1000
G1 F1000 X23.2642 Y10.7798 Z-1.0000 S1000
G1 F1000 X23.2494 Y10.8119 Z-1.0000 S1000
G1 F1000 X23.2346 Y10.8439 Z-1.0000 S1000
G1 F1000 X23.2197 Y10.8759 Z-1.0000 S1000
G1 F1000 X23.2048 Y10.9079 Z-1.0000 S1000
G1 F1000 X23.1899 Y10.9399 Z-1.0000 S1000
G1 F1000 X23.1749 Y10.9718 Z-1.0000 S1000
G1 F1000 X23.1599 Y11.0037 Z-1.0000 S1000
G1 F1000 X23.1448 Y11.0356 Z-1.0000 S1000
G1 F1000 X23.1297 Y11.0675 Z-1.0000 S1000
G1 F1000 X23.1145 Y11.0993 Z-1.0000 S1000
G1 F1000 X23.0993 Y11.1312 Z-1.0000 S1000
G1 F1000 X23.0840 Y11.1630 Z-1.0000 S1000
G1 F1000 X23.0687 Y11.1948 Z-1.0000 S1000
G1 F1000 X23.0534 Y11.2266 Z-1.0000 S1000
G1 F1000 X23.0380 Y11.2583 Z-1.0000 S1000
G1 F1000 X23.0225 Y11.2900 Z-1.0000 S1000
G1 F1000 X23.0071 Y11.3217 Z-1.0000 S1000
G1 F1000 X22.9915 Y11.3534 Z-1.0000 S1000
G1 F1000 X22.9760 Y11.3851 Z-1.0000 S1000
G1 F1000 X22.9604 Y11.4167 Z-1.0000 S1000
G1 F1000 X22.9447 Y11.4483 Z-1.0000 S1000
G1 F1000 X22.9290 Y11.4799 Z-1.0000 S1000
G1 F1000 X22.9133 Y11.5115 Z-1.0000 S1000
G1 F1000 X22.8975 Y11.5430 Z-1.0000 S1000
G1 F1000 X22.8817 Y11.5746 Z-1.0000 S1000
G1 F1000 X22.8658 Y11.6061 Z-1.0000 S1000
G1 F1000 X22.8499 Y11.6376 Z-1.0000 S1000
G1 F1000 X22.8339 Y11.6691 Z-1.0000 S1000
G1 F1000 X22.8179 Y11.7005 Z-1.0000 S1000
G1 F1000 X22.8018 Y11.7319 Z-1.0000 S1000
G1 F1000 X22.7857 Y11.7633 Z-1.0000 S1000
G1 F1000 X22.7696 Y11.7947 Z-1.0000 S1000
G1 F1000 X22.7534 Y11.8260 Z-1.0000 S1000
G1 F1000 X22.7372 Y11.8573 Z-1.0000 S1000
G1 F1000 X22.7209 Y11.8887 Z-1.0000 S1000
G1 F1000 X22.7046 Y11.9200 Z-1.0000 S1000
G1 F1000 X22.6883 Y11.9512 Z-1.0000 S1000
G1 F1000 X22.6719 Y11.9825 Z-1.0000 S1000
G1 F1000 X22.6554 Y12.0137 Z-1.0000 S1000
G1 F1000 X22.6389 Y12.0449 Z-1.0000 S1000
G1 F1000 X22.6224 Y12.0760 Z-1.0000 S1000
G1 F1000 X22.6058 Y12.1072 Z-1.0000 S1000
G1 F1000 X22.5892 Y12.1383 Z-1.0000 S1000
G1 F1000 X22.5726 Y12.1694 Z-1.0000 S1000
G1 F1000 X22.5559 Y12.2005 Z-1.0000 S1000
G1 F1000 X22.5391 Y12.2315 Z-1.0000 S1000
G1 F1000 X22.5223 Y12.2626 Z-1.0000 S1000
G1 F1000 X22.5055 Y12.2936 Z-1.0000 S1000
G1 F1000 X22.4886 Y12.3246 Z-1.0000 S1000
G1 F1000 X22.4717 Y12.3555 Z-1.0000 S1000
G1 F1000 X22.4547 Y12.3865 Z-1.0000 S1000
G1 F1000 X22.4377 Y12.4174 Z-1.0000 S1000
G1 F1000 X22.4207 Y12.4483 Z-1.0000 S1000
G1 F1000 X22.4036 Y12.4791 Z-1.0000 S1000
G1 F1000 X22.3864 Y12.5099 Z-1.0000 S1000
G1 F1000 X22.3693 Y12.5408 Z-1.0000 S1000
G1 F1000 X22.3520 Y12.5716 Z-1.0000 S1000
G1 F1000 X22.3348 Y12.6023 Z-1.0000 S1000
G1 F1000 X22.3175 Y12.6331 Z-1.0000 S1000
G1 F1000 X22.3001 Y12.6638 Z-1.0000 S1000
G1 F1000 X22.2827 Y12.6945 Z-1.0000 S1000
G1 F1000 X22.2653 Y12.7252 Z-1.0000 S1000
G1 F1000 X22.2478 Y12.7558 Z-1.0000 S1000
G1 F1000 X22.2303 Y12.7865 Z-1.0000 S1000
G1 F1000 X22.2127 Y12.8171 Z-1.0000 S1000
G1 F1000 X22.1951 Y12.8476 Z-1.0000 S1000
G1 F1000 X22.1775 Y12.8782 Z-1.0000 S1000
G1 F1000 X22.1598 Y12.9087 Z-1.0000 S1000
G1 F1000 X22.1421 Y12.9392 Z-1.0000 S1000
G1 F1000 X22.1243 Y12.9697 Z-1.0000 S1000
G1 F1000 X22.1065 Y13.0001 Z-1.0000 S1000
G1 F1000 X22.0886 Y13.0306 Z-1.0000 S1000
G1 F1000 X22.0707 Y13.0610 Z-1.0000 S1000
G1 F1000 X22.0528 Y13.0914 Z-1.0000 S1000
G1 F1000 X22.0348 Y13.1217 Z-1.0000 S1000
G1 F1000 X22.0167 Y13.1520 Z-1.0000 S1000
G1 F1000 X21.9987 Y13.1823 Z-1.0000 S1000
G1 F1000 X21.9806 Y13.2126 Z-1.0000 S1000
G1 F1000 X21.9624 Y13.2428 Z-1.0000 S1000
G1 F1000 X21.9442 Y13.2731 Z-1.0000 S1000
G1 F1000 X21.9260 Y13.3033 Z-1.0000 S1000
G1 F1000 X21.9077 Y13.3335 Z-1.0000 S1000
G1 F1000 X21.8894 Y13.3636 Z-1.0000 S1000
G1 F1000 X21.8710 Y13.3938 Z-1.0000 S1000
G1 F1000 X21.8526 Y13.4239 Z-1.0000 S1000
G1 F1000 X21.8341 Y13.4539 Z-1.0000 S1000
G1 F1000 X21.8157 Y13.4840 Z-1.0000 S1000
G1 F1000 X21.7971 Y13.5140 Z-1.0000 S1000
G1 F1000 X21.7786 Y13.5440 Z-1.0000 S1000
G1 F1000 X21.7599 Y13.5739 Z-1.0000 S1000
G1 F1000 X21.7413 Y13.6039 Z-1.0000 S1000
G1 F1000 X21.7226 Y13.6338 Z-1.0000 S1000
G1 F1000 X21.7038 Y13.6637 Z-1.0000 S1000
G1 F1000 X21.6851 Y13.6936 Z-1.0000 S1000
G1 F1000 X21.6662 Y13.7234 Z-1.0000 S1000
G1 F1000 X21.6474 Y13.7533 Z-1.0000 S1000
G1 F1000 X21.6285 Y13.7830 Z-1.0000 S1000
G1 F1000 X21.6095 Y13.8128 Z-1.0000 S1000
G1 F1000 X21.5905 Y13.8425 Z-1.0000 S1000
G1 F1000 X21.5715 Y13.8722 Z-1.0000 S1000
G1 F1000 X21.5525 Y13.9019 Z-1.0000 S1000
G1 F1000 X21.5333 Y13.9316 Z-1.0000 S1000
G1 F1000 X21.5142 Y13.9612 Z-1.0000 S1000
G1 F1000 X21.4950 Y13.9908 Z-1.0000 S1000
G1 F1000 X21.4757 Y14.0204 Z-1.0000 S1000
G1 F1000 X21.4565 Y14.0500 Z-1.0000 S1000
G1 F1000 X21.4372 Y14.0795 Z-1.0000 S1000
G1 F1000 X21.4178 Y14.1090 Z-1.0000 S1000
G1 F1000 X21.3984 Y14.1384 Z-1.0000 S1000
G1 F1000 X21.3790 Y14.1679 Z-1.0000 S1000
G1 F1000 X21.3595 Y14.1973 Z-1.0000 S1000
G1 F1000 X21.3400 Y14.2267 Z-1.0000 S1000
G1 F1000 X21.3204 Y14.2561 Z-1.0000 S1000
G1 F1000 X21.3008 Y14.2854 Z-1.0000 S1000
G1 F1000 X21.2812 Y14.3147 Z-1.0000 S1000
G1 F1000 X21.2615 Y14.3440 Z-1.0000 S1000
G1 F1000 X21.2417 Y14.3732 Z-1.0000 S1000
G1 F1000 X21.2220 Y14.4025 Z-1.0000 S1000
G1 F1000 X21.2022 Y14.4317 Z-1.0000 S1000
G1 F1000 X21.1823 Y14.4608 Z-1.0000 S1000
G1 F1000 X21.1625 Y14.4900 Z-1.0000 S1000
G1 F1000 X21.1425 Y14.5191 Z-1.0000 S1000
G1 F1000 X21.1226 Y14.5482 Z-1.0000 S1000
G1 F1000 X21.1026 Y14.5772 Z-1.0000 S1000
G1 F1000 X21.0825 Y14.6063 Z-1.0000 S1000
G1 F1000 X21.0624 Y14.6353 Z-1.0000 S1000
G1 F1000 X21.0423 Y14.6643 Z-1.0000 S1000
G1 F1000 X21.0221 Y14.6932 Z-1.0000 S1000
G1 F1000 X21.0019 Y14.7221 Z-1.0000 S1000
G1 F1000 X20.9817 Y14.7510 Z-1.0000 S1000
G1 F1000 X20.9614 Y14.7799 Z-1.0000 S1000
G1 F1000 X20.9411 Y14.8087 Z-1.0000 S1000
G1 F1000 X20.9207 Y14.8375 Z-1.0000 S1000
G1 F1000 X20.9003 Y14.8663 Z-1.0000 S1000
G1 F1000 X20.8798 Y14.8951 Z-1.0000 S1000
G1 F1000 X20.8593 Y14.9238 Z-1.0000 S1000
G1 F1000 X20.8388 Y14.9525 Z-1.0000 S1000
G1 F1000 X20.8182 Y14.9812 Z-1.0000 S1000
G1 F1000 X20.7976 Y15.0098 Z-1.0000 S1000
G1 F1000 X20.7770 Y15.0384 Z-1.0000 S1000
G1 F1000 X20.7563 Y15.0670 Z-1.0000 S1000
G1 F1000 X20.7356 Y15.0955 Z-1.0000 S1000
G1 F1000 X20.7148 Y15.1241 Z-1.0000 S1000
G1 F1000 X20.6940 Y15.1526 Z-1.0000 S1000
G1 F1000 X20.6732 Y15.1810 Z-1.0000 S1000
G1 F1000 X20.6523 Y15.2095 Z-1.0000 S1000
G1 F1000 X20.6314 Y15.2379 Z-1.0000 S1000
G1 F1000 X20.6104 Y15.2663 Z-1.0000 S1000
G1 F1000 X20.5894 Y15.2946 Z-1.0000 S1000
G1 F1000 X20.5684 Y15.3229 Z-1.0000 S1000
G1 F1000 X20.5473 Y15.3512 Z-1.0000 S1000
G1 F1000 X20.5262 Y15.3795 Z-1.0000 S1000
G1 F1000 X20.5050 Y15.4077 Z-1.0000 S1000
G1 F1000 X20.4838 Y15.4359 Z-1.0000 S1000
G1 F1000 X20.4626 Y15.4641 Z-1.0000 S1000
G1 F1000 X20.4413 Y15.4922 Z-1.0000 S1000
G1 F1000 X20.4200 Y15.5204 Z-1.0000 S1000
G1 F1000 X20.3986 Y15.5484 Z-1.0000 S1000
G1 F1000 X20.3772 Y15.5765 Z-1.0000 S1000
G1 F1000 X20.3558 Y15.6045 Z-1.0000 S1000
G1 F1000 X20.3343 Y15.6325 Z-1.0000 S1000
G1 F1000 X20.3128 Y15.6605 Z-1.0000 S1000
G1 F1000 X20.2913 Y15.6884 Z-1.0000 S1000
G1 F1000 X20.2697 Y15.7163 Z-1.0000 S1000
G1 F1000 X20.2481 Y15.7442 Z-1.0000 S1000
G1 F1000 X20.2264 Y15.7721 Z-1.0000 S1000
G1 F1000 X20.2047 Y15.7999 Z-1.0000 S1000
G1 F1000 X20.1830 Y15.8277 Z-1.0000 S1000
G1 F1000 X20.1612 Y15.8554 Z-1.0000 S1000
G1 F1000 X20.1394 Y15.8832 Z-1.0000 S1000
G1 F1000 X20.1175 Y15.9109 Z-1.0000 S1000
G1 F1000 X20.0956 Y15.9385 Z-1.0000 S1000
G1 F1000 X20.0737 Y15.9662 Z-1.0000 S1000
G1 F1000 X20.0517 Y15.9938 Z-1.0000 S1000
G1 F1000 X20.0297 Y16.0214 Z-1.0000 S1000
G1 F1000 X20.0077 Y16.0489 Z-1.0000 S1000
G1 F1000 X19.9856 Y16.0764 Z-1.0000 S1000
G1 F1000 X19.9635 Y16.1039 Z-1.0000 S1000
G1 F1000 X19.9413 Y16.1314 Z-1.0000 S1000
G1 F1000 X19.9191 Y16.1588 Z-1.0000 S1000
G1 F1000 X19.8969 Y16.1862 Z-1.0000 S1000
G1 F1000 X19.8746 Y16.2135 Z-1.0000 S1000
G1 F1000 X19.8523 Y16.2409 Z-1.0000 S1000
G1 F1000 X19.8300 Y16.2682 Z-1.0000 S1000
G1 F1000 X19.8076 Y16.2955 Z-1.0000 S1000
G1 F1000 X19.7852 Y16.3227 Z-1.0000 S1000
G1 F1000 X19.7627 Y16.3499 Z-1.0000 S1000
G1 F1000 X19.7402 Y16.3771 Z-1.0000 S1000
G1 F1000 X19.7177 Y16.4042 Z-1.0000 S1000
G1 F1000 X19.6951 Y16.4313 Z-1.0000 S1000
G1 F1000 X19.6725 Y16.4584 Z-1.0000 S1000
G1 F1000 X19.6498 Y16.4855 Z-1.0000 S1000
G1 F1000 X19.6271 Y16.5125 Z-1.0000 S1000
G1 F1000 X19.6044 Y16.5395 Z-1.0000 S1000
G1 F1000 X19.5816 Y16.5664 Z-1.0000 S1000
G1 F1000 X19.5589 Y16.5934 Z-1.0000 S1000
G1 F1000 X19.5360 Y16.6203 Z-1.0000 S1000
G1 F1000 X19.5131 Y16.6471 Z-1.0000 S1000
G1 F1000 X19.4902 Y16.6740 Z-1.0000 S1000
G1 F1000 X19.4673 Y16.7008 Z-1.0000 S1000
G1 F1000 X19.4443 Y16.7275 Z-1.0000 S1000
G1 F1000 X19.4213 Y16.7543 Z-1.0000 S1000
G1 F1000 X19.3982 Y16.7810 Z-1.0000 S1000
G1 F1000 X19.3751 Y16.8077 Z-1.0000 S1000
G1 F1000 X19.3520 Y16.8343 Z-1.0000 S1000
G1 F1000 X19.3288 Y16.8609 Z-1.0000 S1000
G1 F1000 X19.3056 Y16.8875 Z-1.0000 S1000
G1 F1000 X19.2824 Y16.9140 Z-1.0000 S1000
G1 F1000 X19.2591 Y16.9405 Z-1.0000 S1000
G1 F1000 X19.2358 Y16.9670 Z-1.0000 S1000
G1 F1000 X19.2125 Y16.9935 Z-1.0000 S1000
G1 F1000 X19.1891 Y17.0199 Z-1.0000 S1000
G1 F1000 X19.1656 Y17.0463 Z-1.0000 S1000
G1 F1000 X19.1422 Y17.0726 Z-1.0000 S1000
G1 F1000 X19.1187 Y17.0989 Z-1.0000 S1000
G1 F1000 X19.0951 Y17.1252 Z-1.0000 S1000
G1 F1000 X19.0716 Y17.1515 Z-1.0000 S1000
G1 F1000 X19.0480 Y17.1777 Z-1.0000 S1000
G1 F1000 X19.0243 Y17.2039 Z-1.0000 S1000
G1 F1000 X19.0007 Y17.2300 Z-1.0000 S1000
G1 F1000 X18.9769 Y17.2562 Z-1.0000 S1000
G1 F1000 X18.9532 Y17.2823 Z-1.0000 S1000
G1 F1000 X18.9294 Y17.3083 Z-1.0000 S1000
G1 F1000 X18.9056 Y17.3343 Z-1.0000 S1000
G1 F1000 X18.8817 Y17.3603 Z-1.0000 S1000
G1 F1000 X18.8578 Y17.3863 Z-1.0000 S1000
G1 F1000 X18.8339 Y17.4122 Z-1.0000 S1000
G1 F1000 X18.8099 Y17.4381 Z-1.0000 S1000
G1 F1000 X18.7859 Y17.4640 Z-1.0000 S1000
G1 F1000 X18.7619 Y17.4898 Z-1.0000 S1000
G1 F1000 X18.7378 Y17.5156 Z-1.0000 S1000
G1 F1000 X18.7137 Y17.5414 Z-1.0000 S1000
G1 F1000 X18.6896 Y17.5671 Z-1.0000 S1000
G1 F1000 X18.6654 Y17.5928 Z-1.0000 S1000
G1 F1000 X18.6412 Y17.6184 Z-1.0000 S1000
G1 F1000 X18.6169 Y17.6441 Z-1.0000 S1000
G1 F1000 X18.5926 Y17.6697 Z-1.0000 S1000
G1 F1000 X18.5683 Y17.6952 Z-1.0000 S1000
G1 F1000 X18.5440 Y17.7208 Z-1.0000 S1000
G1 F1000 X18.5196 Y17.7462 Z-1.0000 S1000
G1 F1000 X18.4952 Y17.7717 Z-1.0000 S1000
G1 F1000 X18.4707 Y17.7971 Z-1.0000 S1000
G1 F1000 X18.4462 Y17.8225 Z-1.0000 S1000
G1 F1000 X18.4217 Y17.8479 Z-1.0000 S1000
G1 F1000 X18.3971 Y17.8732 Z-1.0000 S1000
G1 F1000 X18.3725 Y17.8985 Z-1.0000 S1000
G1 F1000 X18.3479 Y17.9238 Z-1.0000 S1000
G1 F1000 X18.3232 Y17.9490 Z-1.0000 S1000
G1 F1000 X18.2985 Y17.9742 Z-1.0000 S1000
G1 F1000 X18.2737 Y17.9993 Z-1.0000 S1000
G1 F1000 X18.2490 Y18.0244 Z-1.0000 S1000
G1 F1000 X18.2242 Y18.0495 Z-1.0000 S1000
G1 F1000 X18.1993 Y18.0746 Z-1.0000 S1000
G1 F1000 X18.1744 Y18.0996 Z-1.0000 S1000
G1 F1000 X18.1495 Y18.1246 Z-1.0000 S1000
G1 F1000 X18.1246 Y18.1495 Z-1.0000 S1000
G1 F1000 X18.0996 Y18.1744 Z-1.0000 S1000
G1 F1000 X18.0746 Y18.1993 Z-1.0000 S1000
G1 F1000 X18.0495 Y18.2242 Z-1.0000 S1000
G1 F1000 X18.0244 Y18.2490 Z-1.0000 S1000
G1 F1000 X17.9993 Y18.2737 Z-1.0000 S1000
G1 F1000 X17.9742 Y18.2985 Z-1.0000 S1000
G1 F1000 X17.9490 Y18.3232 Z-1.0000 S1000
G1 F1000 X17.9238 Y18.3479 Z-1.0000 S1000
G1 F1000 X17.8985 Y18.3725 Z-1.0000 S1000
G1 F1000 X17.8732 Y18.3971 Z-1.0000 S1000
G1 F1000 X17.8479 Y18.4217 Z-1.0000 S1000
G1 F1000 X17.8225 Y18.4462 Z-1.0000 S1000
G1 F1000 X17.7971 Y18.4707 Z-1.0000 S1000
G1 F1000 X17.7717 Y18.4952 Z-1.0000 S1000
G1 F1000 X17.7462 Y18.5196 Z-1.0000 S1000
G1 F1000 X17.7208 Y18.5440 Z-1.0000 S1000
G1 F1000 X17.6952 Y18.5683 Z-1.0000 S1000
G1 F1000 X17.6697 Y18.5926 Z-1.0000 S1000
G1 F1000 X17.6441 Y18.6169 Z-1.0000 S1000
G1 F1000 X17.6184 Y18.6412 Z-1.0000 S1000
G1 F1000 X17.5928 Y18.6654 Z-1.0000 S1000
G1 F1000 X17.5671 Y18.6896 Z-1.0000 S1000
G1 F1000 X17.5414 Y18.7137 Z-1.0000 S1000
G1 F1000 X17.5156 Y18.7378 Z-1.0000 S1000
G1 F1000 X17.4898 Y18.7619 Z-1.0000 S1000
G1 F1000 X17.4640 Y18.7859 Z-1.0000 S1000
G1 F1000 X17.4381 Y18.8099 Z-1.0000 S1000
G1 F1000 X17.4122 Y18.8339 Z-1.0000 S1000
G1 F1000 X17.3863 Y18.8578 Z-1.0000 S1000
G1 F1000 X17.3603 Y18.8817 Z-1.0000 S1000
G1 F1000 X17.3343 Y18.9056 Z-1.0000 S1000
G1 F1000 X17.3083 Y18.9294 Z-1.0000 S1000
G1 F1000 X17.2823 Y18.9532 Z-1.0000 S1000
G1 F1000 X17.2562 Y18.9769 Z-1.0000 S1000
G1 F1000 X17.2300 Y19.0007 Z-1.0000 S1000
G1 F1000 X17.2039 Y19.0243 Z-1.0000 S1000
G1 F1000 X17.1777 Y19.0480 Z-1.0000 S1000
G1 F1000 X17.1515 Y19.0716 Z-1.0000 S1000
G1 F1000 X17.1252 Y19.0951 Z-1.0000 S1000
G1 F1000 X17.0989 Y19.1187 Z-1.0000 S1000
G1 F1000 X17.0726 Y19.1422 Z-1.0000 S1000
G1 F1000 X17.0463 Y19.1656 Z-1.0000 S1000
G1 F1000 X17.0199 Y19.1891 Z-1.0000 S1000
G1 F1000 X16.9935 Y19.2125 Z-1.0000 S1000
G1 F1000 X16.9670 Y19.2358 Z-1.0000 S1000
G1 F1000 X16.9405 Y19.2591 Z-1.0000 S1000
G1 F1000 X16.9140 Y19.2824 Z-1.0000 S1000
G1 F1000 X16.8875 Y19.3056 Z-1.0000 S1000
G1 F1000 X16.8609 Y19.3288 Z-1.0000 S1000
G1 F1000 X16.8343 Y19.3520 Z-1.0000 S1000
G1 F1000 X16.8077 Y19.3751 Z-1.0000 S1000
G1 F1000 X16.7810 Y19.3982 Z-1.0000 S1000
G1 F1000 X16.7543 Y19.4213 Z-1.0000 S1000
G1 F1000 X16.7275 Y19.4443 Z-1.0000 S1000
G1 F1000 X16.7008 Y19.4673 Z-1.0000 S1000
G1 F1000 X16.6740 Y19.4902 Z-1.0000 S1000
G1 F1000 X16.6471 Y19.5131 Z-1.0000 S1000
G1 F1000 X16.6203 Y19.5360 Z-1.0000 S1000
G1 F1000 X16.5934 Y19.5589 Z-1.0000 S1000
G1 F1000 X16.5664 Y19.5816 Z-1.0000 S1000
G1 F1000 X16.5395 Y19.6044 Z-1.0000 S1000
G1 F1000 X16.5125 Y19.6271 Z-1.0000 S1000
G1 F1000 X16.4855 Y19.6498 Z-1.0000 S1000
G1 F1000 X16.4584 Y19.6725 Z-1.0000 S1000
G1 F1000 X16.4313 Y19.6951 Z-1.0000 S1000
G1 F1000 X16.4042 Y19.7177 Z-1.0000 S1000
G1 F1000 X16.3771 Y19.7402 Z-1.0000 S1000
G1 F1000 X16.3499 Y19.7627 Z-1.0000 S1000
G1 F1000 X16.3227 Y19.7852 Z-1.0000 S1000
G1 F1000 X16.2955 Y19.8076 Z-1.0000 S1000
G1 F1000 X16.2682 Y19.8300 Z-1.0000 S1000
G1 F1000 X16.2409 Y19.8523 Z-1.0000 S1000
G1 F1000 X16.2135 Y19.8746 Z-1.0000 S1000
G1 F1000 X16.1862 Y19.8969 Z-1.0000 S1000
G1 F1000 X16.1588 Y19.9191 Z-1.0000 S1000
G1 F1000 X16.1314 Y19.9413 Z-1.0000 S1000
G1 F1000 X16.1039 Y19.9635 Z-1.0000 S1000
G1 F1000 X16.0764 Y19.9856 Z-1.0000 S1000
G1 F1000 X16.0489 Y20.0077 Z-1.0000 S1000
G1 F1000 X16.0214 Y20.0297 Z-1.0000 S1000
G1 F1000 X15.9938 Y20.0517 Z-1.0000 S1000
G1 F1000 X15.9662 Y20.0737 Z-1.0000 S1000
G1 F1000 X15.9385 Y20.0956 Z-1.0000 S1000
G1 F1000 X15.9109 Y20.1175 Z-1.0000 S1000
G1 F1000 X15.8832 Y20.1394 Z-1.0000 S1000
G1 F1000 X15.8554 Y20.1612 Z-1.0000 S1000
G1 F1000 X15.8277 Y20.1830 Z-1.0000 S1000
G1 F1000 X15.7999 Y20.2047 Z-1.0000 S1000
G1 F1000 X15.7721 Y20.2264 Z-1.0000 S1000
G1 F1000 X15.7442 Y20.2481 Z-1.0000 S1000
G1 F1000 X15.7163 Y20.2697 Z-1.0000 S1000
G1 F1000 X15.6884 Y20.2913 Z-1.0000 S1000
G1 F1000 X15.6605 Y20.3128 Z-1.0000 S1000
G1 F1000 X15.6325 Y20.3343 Z-1.0000 S1000
G1 F1000 X15.6045 Y20.3558 Z-1.0000 S1000
G1 F1000 X15.5765 Y20.3772 Z-1.0000 S1000
G1 F1000 X15.5484 Y20.3986 Z-1.0000 S1000
G1 F1000 X15.5204 Y20.4200 Z-1.0000 S1000
G1 F1000 X15.4922 Y20.4413 Z-1.0000 S1000
G1 F1000 X15.4641 Y20.4626 Z-1.0000 S1000
G1 F1000 X15.4359 Y20.4838 Z-1.0000 S1000
G1 F1000 X15.4077 Y20.5050 Z-1.0000 S1000
G1 F1000 X15.3795 Y20.5262 Z-1.0000 S1000
G1 F1000 X15.3512 Y20.5473 Z-1.0000 S1000
G1 F1000 X15.3229 Y20.5684 Z-1.0000 S1000
G1 F1000 X15.2946 Y20.5894 Z-1.0000 S1000
G1 F1000 X15.2663 Y20.6104 Z-1.0000 S1000
G1 F1000 X15.2379 Y20.6314 Z-1.0000 S1000
G1 F1000 X15.2095 Y20.6523 Z-1.0000 S1000
G1 F1000 X15.1810 Y20.6732 Z-1.0000 S1000
G1 F1000 X15.1526 Y20.6940 Z-1.0000 S1000
G1 F1000 X15.1241 Y20.7148 Z-1.0000 S1000
G1 F1000 X15.0955 Y20.7356 Z-1.0000 S1000
G1 F1000 X15.0670 Y20.7563 Z-1.0000 S1000
G1 F1000 X15.0384 Y20.7770 Z-1.0000 S1000
G1 F1000 X15.0098 Y20.7976 Z-1.0000 S1000
G1 F1000 X14.9812 Y20.8182 Z-1.0000 S1000
G1 F1000 X14.9525 Y20.8388 Z-1.0000 S1000
G1 F1000 X14.9238 Y20.8593 Z-1.0000 S1000
G1 F1000 X14.8951 Y20.8798 Z-1.0000 S1000
G1 F1000 X14.8663 Y20.9003 Z-1.0000 S1000
G1 F1000 X14.8375 Y20.9207 Z-1.0000 S1000
G1 F1000 X14.8087 Y20.9411 Z-1.0000 S1000
G1 F1000 X14.7799 Y20.9614 Z-1.0000 S1000
G1 F1000 X14.7510 Y20.9817 Z-1.0000 S1000
G1 F1000 X14.7221 Y21.0019 Z-1.0000 S1000
G1 F1000 X14.6932 Y21.0221 Z-1.0000 S1000
G1 F1000 X14.6643 Y21.0423 Z-1.0000 S1000
G1 F1000 X14.6353 Y21.0624 Z-1.0000 S1000
G1 F1000 X14.6063 Y21.0825 Z-1.0000 S1000
G1 F1000 X14.5772 Y21.1026 Z-1.0000 S1000
G1 F1000 X14.5482 Y21.1226 Z-1.0000 S1000
G1 F1000 X14.5191 Y21.1425 Z-1.0000 S1000
G1 F1000 X14.4900 Y21.1625 Z-1.0000 S1000
G1 F1000 X14.4608 Y21.1823 Z-1.0000 S1000
G1 F1000 X14.4317 Y21.2022 Z-1.0000 S1000
G1 F1000 X14.4025 Y21.2220 Z-1.0000 S1000
G1 F1000 X14.3732 Y21.2417 Z-1.0000 S1000
G1 F1000 X14.3440 Y21.2615 Z-1.0000 S1000
G1 F1000 X14.3147 Y21.2812 Z-1.0000 S1000
G1 F1000 X14.2854 Y21.3008 Z-1.0000 S1000
G1 F1000 X14.2561 Y21.3204 Z-1.0000 S1000
G1 F1000 X14.2267 Y21.3400 Z-1.0000 S1000
G1 F1000 X14.1973 Y21.3595 Z-1.0000 S1000
G1 F1000 X14.1679 Y21.3790 Z-1.0000 S1000
G1 F1000 X14.1384 Y21.3984 Z-1.0000 S1000
G1 F1000 X14.1090 Y21.4178 Z-1.0000 S1000
G1 F1000 X14.0795 Y21.4372 Z-1.0000 S1000
G1 F1000 X14.0500 Y21.4565 Z-1.0000 S1000
G1 F1000 X14.0204 Y21.4757 Z-1.0000 S1000
G1 F1000 X13.9908 Y21.4950 Z-1.0000 S1000
G1 F1000 X13.9612 Y21.5142 Z-1.0000 S1000
G1 F1000 X13.9316 Y21.5333 Z-1.0000 S1000
G1 F1000 X13.9019 Y21.5525 Z-1.0000 S1000
G1 F1000 X13.8722 Y21.5715 Z-1.0000 S1000
G1 F1000 X13.8425 Y21.5905 Z-1.0000 S1000
G1 F1000 X13.8128 Y21.6095 Z-1.0000 S1000
G1 F1000 X13.7830 Y21.6285 Z-1.0000 S1000
G1 F1000 X13.7533 Y21.6474 Z-1.0000 S1000
G1 F1000 X13.7234 Y21.6662 Z-1.0000 S1000
G1 F1000 X13.6936 Y21.6851 Z-1.0000 S1000
G1 F1000 X13.6637 Y21.7038 Z-1.0000 S1000
G1 F1000 X13.6338 Y21.7226 Z-1.0000 S1000
G1 F1000 X13.6039 Y21.7413 Z-1.0000 S1000
G1 F1000 X13.5739 Y21.7599 Z-1.0000 S1000
G1 F1000 X13.5440 Y21.7786 Z-1.0000 S1000
G1 F1000 X13.5140 Y21.7971 Z-1.0000 S1000
G1 F1000 X13.4840 Y21.8157 Z-1.0000 S1000
G1 F1000 X13.4539 Y21.8341 Z-1.0000 S1000
G1 F1000 X13.4239 Y21.8526 Z-1.0000 S1000
G1 F1000 X13.3938 Y21.8710 Z-1.0000 S1000
G1 F1000 X13.3636 Y21.8894 Z-1.0000 S1000
G1 F1000 X13.3335 Y21.9077 Z-1.0000 S1000
G1 F1000 X13.3033 Y21.9260 Z-1.0000 S1000
G1 F1000 X13.2731 Y21.9442 Z-1.0000 S1000
G1 F1000 X13.2428 Y21.9624 Z-1.0000 S1000
G1 F1000 X13.2126 Y21.9806 Z-1.0000 S1000
G1 F1000 X13.1823 Y21.9987 Z-1.0000 S1000
G1 F1000 X13.1520 Y22.0167 Z-1.0000 S1000
G1 F1000 X13.1217 Y22.0348 Z-1.0000 S1000
G1 F1000 X13.0914 Y22.0528 Z-1.0000 S1000
G1 F1000 X13.0610 Y22.0707 Z-1.0000 S1000
G1 F1000 X13.0306 Y22.0886 Z-1.0000 S1000
G1 F1000 X13.0001 Y22.1065 Z-1.0000 S1000
G1 F1000 X12.9697 Y22.1243 Z-1.0000 S1000
G1 F1000 X12.9392 Y22.1421 Z-1.0000 S1000
G1 F1000 X12.9087 Y22.1598 Z-1.0000 S1000
G1 F1000 X12.8782 Y22.1775 Z-1.0000 S1000
G1 F1000 X12.8476 Y22.1951 Z-1.0000 S1000
G1 F1000 X12.8171 Y22.2127 Z-1.0000 S1000
G1 F1000 X12.7865 Y22.2303 Z-1.0000 S1000
G1 F1000 X12.7558 Y22.2478 Z-1.0000 S1000
G1 F1000 X12.7252 Y22.2653 Z-1.0000 S1000
G1 F1000 X12.6945 Y22.2827 Z-1.0000 S1000
G1 F1000 X12.6638 Y22.3001 Z-1.0000 S1000
G1 F1000 X12.6331 Y22.3175 Z-1.0000 S1000
G1 F1000 X12.6023 Y22.3348 Z-1.0000 S1000
G1 F1000 X12.5716 Y22.3520 Z-1.0000 S1000
G1 F1000 X12.5408 Y22.3693 Z-1.0000 S1000
G1 F1000 X12.5099 Y22.3864 Z-1.0000 S1000
G1 F1000 X12.4791 Y22.4036 Z-1.0000 S1000
G1 F1000 X12.4483 Y22.4207 Z-1.0000 S1000
G1 F1000 X12.4174 Y22.4377 Z-1.0000 S1000
G1 F1000 X12.3865 Y22.4547 Z-1.0000 S1000
G1 F1000 X12.3555 Y22.4717 Z-1.0000 S1000
G1 F1000 X12.3246 Y22.4886 Z-1.0000 S1000
G1 F1000 X12.2936 Y22.5055 Z-1.0000 S1000
G1 F1000 X12.2626 Y22.5223 Z-1.0000 S1000
G1 F1000 X12.2315 Y22.5391 Z-1.0000 S1000
G1 F1000 X12.2005 Y22.5559 Z-1.0000 S1000
G1 F1000 X12.1694 Y22.5726 Z-1.0000 S1000
G1 F1000 X12.1383 Y22.5892 Z-1.0000 S1000
G1 F1000 X12.1072 Y22.6058 Z-1.0000 S1000
G1 F1000 X12.0760 Y22.6224 Z-1.0000 S1000
G1 F1000 X12.0449 Y22.6389 Z-1.0000 S1000
G1 F1000 X12.0137 Y22.6554 Z-1.0000 S1000
G1 F1000 X11.9825 Y22.6719 Z-1.0000 S1000
G1 F1000 X11.9512 Y22.6883 Z-1.0000 S1000
G1 F1000 X11.9200 Y22.7046 Z-1.0000 S1000
G1 F1000 X11.8887 Y22.7209 Z-1.0000 S1000
G1 F1000 X11.8573 Y22.7372 Z-1.0000 S1000
G1 F1000 X11.8260 Y22.7534 Z-1.0000 S1000
G1 F1000 X11.7947 Y22.7696 Z-1.0000 S1000
G1 F1000 X11.7633 Y22.7857 Z-1.0000 S1000
G1 F1000 X11.7319 Y22.8018 Z-1.0000 S1000
G1 F1000 X11.7005 Y22.8179 Z-1.0000 S1000
G1 F1000 X11.6691 Y22.8339 Z-1.0000 S1000
G1 F1000 X11.6376 Y22.8499 Z-1.0000 S1000
G1 F1000 X11.6061 Y22.8658 Z-1.0000 S1000
G1 F1000 X11.5746 Y22.8817 Z-1.0000 S1000
G1 F1000 X11.5430 Y22.8975 Z-1.0000 S1000
G1 F1000 X11.5115 Y22.9133 Z-1.0000 S1000
G1 F1000 X11.4799 Y22.9290 Z-1.0000 S1000
G1 F1000 X11.4483 Y22.9447 Z-1.0000 S1000
G1 F1000 X11.4167 Y22.9604 Z-1.0000 S1000
G1 F1000 X11.3851 Y22.9760 Z-1.0000 S1000
G1 F1000 X11.3534 Y22.9915 Z-1.0000 S1000
G1 F1000 X11.3217 Y23.0071 Z-1.0000 S1000
G1 F1000 X11.2900 Y23.0225 Z-1.0000 S1000
G1 F1000 X11.2583 Y23.0380 Z-1.0000 S1000
G1 F1000 X11.2266 Y23.0534 Z-1.0000 S1000
G1 F1000 X11.1948 Y23.0687 Z-1.0000 S1000
G1 F1000 X11.1630 Y23.0840 Z-1.0000 S1000
G1 F1000 X11.1312 Y23.0993 Z-1.0000 S1000
G1 F1000 X11.0993 Y23.1145 Z-1.0000 S1000
G1 F1000 X11.0675 Y23.1297 Z-1.0000 S1000
G1 F1000 X11.0356 Y23.1448 Z-1.0000 S1000
G1 F1000 X11.0037 Y23.1599 Z-1.0000 S1000
G1 F1000 X10.9718 Y23.1749 Z-1.0000 S1000
G1 F1000 X10.9399 Y23.1899 Z-1.0000 S1000
G1 F1000 X10.9079 Y23.2048 Z-1.0000 S1000
G1 F1000 X10.8759 Y23.2197 Z-1.0000 S1000
G1 F1000 X10.8439 Y23.2346 Z-1.0000 S1000
G1 F1000 X10.8119 Y23.2494 Z-1.0000 S1000
G1 F1000 X10.7798 Y23.2642 Z-1.0000 S1000
G1 F1000 X10.7478 Y23.2789 Z-1.0000 S1000
G1 F1000 X10.7157 Y23.2936 Z-1.0000 S1000
G1 F1000 X10.6836 Y23.3082 Z-1.0000 S1000
G1 F1000 X10.6515 Y23.3228 Z-1.0000 S1000
G1 F1000 X10.6193 Y23.3373 Z-1.0000 S1000
G1 F1000 X10.5872 Y23.3518 Z-1.0000 S1000
G1 F1000 X10.5550 Y23.3663 Z-1.0000 S1000
G1 F1000 X10.5228 Y23.3807 Z-1.0000 S1000
G1 F1000 X10.4905 Y23.3951 Z-1.0000 S1000
G1 F1000 X10.4583 Y23.4094 Z-1.0000 S1000
G1 F1000 X10.4260 Y23.4237 Z-1.0000 S1000
G1 F1000 X10.3937 Y23.4379 Z-1.0000 S1000
G1 F1000 X10.3614 Y23.4521 Z-1.0000 S1000
G1 F1000 X10.3291 Y23.4662 Z-1.0000 S1000
G1 F1000 X10.2968 Y23.4803 Z-1.0000 S1000
G1 F1000 X10.2644 Y23.4943 Z-1.0000 S1000
G1 F1000 X10.2320 Y23.5083 Z-1.0000 S1000
G1 F1000 X10.1996 Y23.5223 Z-1.0000 S1000
G1 F1000 X10.1672 Y23.5362 Z-1.0000 S1000
G1 F1000 X10.1348 Y23.5501 Z-1.0000 S1000
G1 F1000 X10.1023 Y23.5639 Z-1.0000 S1000
G1 F1000 X10.0698 Y23.5777 Z-1.0000 S1000
G1 F1000 X10.0373 Y23.5914 Z-1.0000 S1000
G1 F1000 X10.0048 Y23.6051 Z-1.0000 S1000
G1 F1000 X9.9723 Y23.6187 Z-1.0000 S1000
G1 F1000 X9.9397 Y23.6323 Z-1.0000 S1000
G1 F1000 X9.9071 Y23.6459 Z-1.0000 S1000
G1 F1000 X9.8745 Y23.6594 Z-1.0000 S1000
G1 F1000 X9.8419 Y23.6728 Z-1.0000 S1000
G1 F1000 X9.8093 Y23.6862 Z-1.0000 S1000
G1 F1000 X9.7766 Y23.6996 Z-1.0000 S1000
G1 F1000 X9.7439 Y23.7129 Z-1.0000 S1000
G1 F1000 X9.7112 Y23.7262 Z-1.0000 S1000
G1 F1000 X9.6785 Y23.7394 Z-1.0000 S1000
G1 F1000 X9.6458 Y23.7526 Z-1.0000 S1000
G1 F1000 X9.6131 Y23.7657 Z-1.0000 S1000
G1 F1000 X9.5803 Y23.7788 Z-1.0000 S1000
G1 F1000 X9.5476 Y23.7919 Z-1.0000 S1000
G1 F1000 X9.5148 Y23.8049 Z-1.0000 S1000
G1 F1000 X9.4819 Y23.8178 Z-1.0000 S1000
G1 F1000 X9.4491 Y23.8307 Z-1.0000 S1000
G1 F1000 X9.4162 Y23.8436 Z-1.0000 S1000
G1 F1000 X9.3833 Y23.8564 Z-1.0000 S1000
G1 F1000 X9.3504 Y23.8692 Z-1.0000 S1000
G1 F1000 X9.3175 Y23.8819 Z-1.0000 S1000
G1 F1000 X9.2846 Y23.8946 Z-1.0000 S1000
G1 F1000 X9.2517 Y23.9072 Z-1.0000 S1000
G1 F1000 X9.2187 Y23.9198 Z-1.0000 S1000
G1 F1000 X9.1858 Y23.9323 Z-1.0000 S1000
G1 F1000 X9.1528 Y23.9448 Z-1.0000 S1000
G1 F1000 X9.1198 Y23.9573 Z-1.0000 S1000
G1 F1000 X9.0867 Y23.9697 Z-1.0000 S1000
G1 F1000 X9.0537 Y23.9820 Z-1.0000 S1000
G1 F1000 X9.0206 Y23.9944 Z-1.0000 S1000
G1 F1000 X8.9875 Y24.0066 Z-1.0000 S1000
G1 F1000 X8.9544 Y24.0188 Z-1.0000 S1000
G1 F1000 X8.9213 Y24.0310 Z-1.0000 S1000
G1 F1000 X8.8882 Y24.0431 Z-1.0000 S1000
G1 F1000 X8.8550 Y24.0552 Z-1.0000 S1000
G1 F1000 X8.8219 Y24.0672 Z-1.0000 S1000
G1 F1000 X8.7887 Y24.0792 Z-1.0000 S1000
G1 F1000 X8.7555 Y24.0911 Z-1.0000 S1000
G1 F1000 X8.7223 Y24.1030 Z-1.0000 S1000
G1 F1000 X8.6890 Y24.1149 Z-1.0000 S1000
G1 F1000 X8.6558 Y24.1267 Z-1.0000 S1000
G1 F1000 X8.6225 Y24.1384 Z-1.0000 S1000
G1 F1000 X8.5892 Y24.1502 Z-1.0000 S1000
G1 F1000 X8.5559 Y24.1618 Z-1.0000 S1000
G1 F1000 X8.5226 Y24.1734 Z-1.0000 S1000
G1 F1000 X8.4893 Y24.1850 Z-1.0000 S1000
G1 F1000 X8.4559 Y24.1965 Z-1.0000 S1000
G1 F1000 X8.4226 Y24.2080 Z-1.0000 S1000
G1 F1000 X8.3892 Y24.2194 Z-1.0000 S1000
G1 F1000 X8.3558 Y24.2308 Z-1.0000 S1000
G1 F1000 X8.3224 Y24.2421 Z-1.0000 S1000
G1 F1000 X8.2889 Y24.2534 Z-1.0000 S1000
G1 F1000 X8.2555 Y24.2646 Z-1.0000 S1000
G1 F1000 X8.2220 Y24.2758 Z-1.0000 S1000
G1 F1000 X8.1885 Y24.2870 Z-1.0000 S1000
G1 F1000 X8.1550 Y24.2981 Z-1.0000 S1000
G1 F1000 X8.1216 Y24.3091 Z-1.0000 S1000
G1 F1000 X8.0880 Y24.3201 Z-1.0000 S1000
G1 F1000 X8.0545 Y24.3311 Z-1.0000 S1000
G1 F1000 X8.0210 Y24.3420 Z-1.0000 S1000
G1 F1000 X7.9874 Y24.3528 Z-1.0000 S1000
G1 F1000 X7.9538 Y24.3636 Z-1.0000 S1000
G1 F1000 X7.9202 Y24.3744 Z-1.0000 S1000
G1 F1000 X7.8866 Y24.3851 Z-1.0000 S1000
G1 F1000 X7.8529 Y24.3958 Z-1.0000 S1000
G1 F1000 X7.8193 Y24.4065 Z-1.0000 S1000
G1 F1000 X7.7856 Y24.4170 Z-1.0000 S1000
G1 F1000 X7.7520 Y24.4276 Z-1.0000 S1000
G1 F1000 X7.7183 Y24.4380 Z-1.0000 S1000
G1 F1000 X7.6846 Y24.4485 Z-1.0000 S1000
G1 F1000 X7.6509 Y24.4589 Z-1.0000 S1000
G1 F1000 X7.6172 Y24.4692 Z-1.0000 S1000
G1 F1000 X7.5834 Y24.4795 Z-1.0000 S1000
G1 F1000 X7.5496 Y24.4898 Z-1.0000 S1000
G1 F1000 X7.5158 Y24.5000 Z-1.0000 S1000
G1 F1000 X7.4820 Y24.5101 Z-1.0000 S1000
G1 F1000 X7.4482 Y24.5202 Z-1.0000 S1000
G1 F1000 X7.4144 Y24.5303 Z-1.0000 S1000
G1 F1000 X7.3806 Y24.5403 Z-1.0000 S1000
G1 F1000 X7.3468 Y24.5503 Z-1.0000 S1000
G1 F1000 X7.3129 Y24.5602 Z-1.0000 S1000
G1 F1000 X7.2791 Y24.5700 Z-1.0000 S1000
G1 F1000 X7.2452 Y24.5799 Z-1.0000 S1000
G1 F1000 X7.2113 Y24.5896 Z-1.0000 S1000
G1 F1000 X7.1774 Y24.5994 Z-1.0000 S1000
G1 F1000 X7.1434 Y24.6091 Z-1.0000 S1000
G1 F1000 X7.1094 Y24.6187 Z-1.0000 S1000
G1 F1000 X7.0755 Y24.6283 Z-1.0000 S1000
G1 F1000 X7.0415 Y24.6378 Z-1.0000 S1000
G1 F1000 X7.0075 Y24.6473 Z-1.0000 S1000
G1 F1000 X6.9736 Y24.6568 Z-1.0000 S1000
G1 F1000 X6.9396 Y24.6662 Z-1.0000 S1000
G1 F1000 X6.9056 Y24.6755 Z-1.0000 S1000
G1 F1000 X6.8715 Y24.6848 Z-1.0000 S1000
G1 F1000 X6.8375 Y24.6940 Z-1.0000 S1000
G1 F1000 X6.8034 Y24.7033 Z-1.0000 S1000
G1 F1000 X6.7693 Y24.7124 Z-1.0000 S1000
G1 F1000 X6.7352 Y24.7215 Z-1.0000 S1000
G1 F1000 X6.7011 Y24.7306 Z-1.0000 S1000
G1 F1000 X6.6670 Y24.7396 Z-1.0000 S1000
G1 F1000 X6.6329 Y24.7486 Z-1.0000 S1000
G1 F1000 X6.5988 Y24.7575 Z-1.0000 S1000
G1 F1000 X6.5646 Y24.7664 Z-1.0000 S1000
G1 F1000 X6.5305 Y24.7752 Z-1.0000 S1000
G1 F1000 X6.4963 Y24.7840 Z-1.0000 S1000
G1 F1000 X6.4621 Y24.7927 Z-1.0000 S1000
G1 F1000 X6.4279 Y24.8014 Z-1.0000 S1000
G1 F1000 X6.3937 Y24.8100 Z-1.0000 S1000
G1 F1000 X6.3595 Y24.8186 Z-1.0000 S1000
G1 F1000 X6.3252 Y24.8271 Z-1.0000 S1000
G1 F1000 X6.2909 Y24.8356 Z-1.0000 S1000
G1 F1000 X6.2567 Y24.8441 Z-1.0000 S1000
G1 F1000 X6.2225 Y24.8524 Z-1.0000 S1000
G1 F1000 X6.1882 Y24.8608 Z-1.0000 S1000
G1 F1000 X6.1539 Y24.8691 Z-1.0000 S1000
G1 F1000 X6.1196 Y24.8773 Z-1.0000 S1000
G1 F1000 X6.0853 Y24.8855 Z-1.0000 S1000
G1 F1000 X6.0510 Y24.8937 Z-1.0000 S1000
G1 F1000 X6.0166 Y24.9018 Z-1.0000 S1000
G1 F1000 X5.9823 Y24.9098 Z-1.0000 S1000
G1 F1000 X5.9479 Y24.9179 Z-1.0000 S1000
G1 F1000 X5.9135 Y24.9258 Z-1.0000 S1000
G1 F1000 X5.8791 Y24.9337 Z-1.0000 S1000
G1 F1000 X5.8447 Y24.9416 Z-1.0000 S1000
G1 F1000 X5.8103 Y24.9494 Z-1.0000 S1000
G1 F1000 X5.7760 Y24.9572 Z-1.0000 S1000
G1 F1000 X5.7415 Y24.9649 Z-1.0000 S1000
G1 F1000 X5.7071 Y24.9726 Z-1.0000 S1000
G1 F1000 X5.6727 Y24.9802 Z-1.0000 S1000
G1 F1000 X5.6382 Y24.9878 Z-1.0000 S1000
G1 F1000 X5.6037 Y24.9953 Z-1.0000 S1000
G1 F1000 X5.5692 Y25.0028 Z-1.0000 S1000
G1 F1000 X5.5347 Y25.0102 Z-1.0000 S1000
G1 F1000 X5.5002 Y25.0176 Z-1.0000 S1000
G1 F1000 X5.4657 Y25.0249 Z-1.0000 S1000
G1 F1000 X5.4312 Y25.0322 Z-1.0000 S1000
G1 F1000 X5.3967 Y25.0394 Z-1.0000 S1000
G1 F1000 X5.3621 Y25.0466 Z-1.0000 S1000
G1 F1000 X5.3276 Y25.0538 Z-1.0000 S1000
G1 F1000 X5.2930 Y25.0609 Z-1.0000 S1000
G1 F1000 X5.2585 Y25.0679 Z-1.0000 S1000
G1 F1000 X5.2239 Y25.0749 Z-1.0000 S1000
G1 F1000 X5.1893 Y25.0819 Z-1.0000 S1000
G1 F1000 X5.1546 Y25.0888 Z-1.0000 S1000
G1 F1000 X5.1200 Y25.0956 Z-1.0000 S1000
G1 F1000 X5.0854 Y25.1024 Z-1.0000 S1000
G1 F1000 X5.0508 Y25.1092 Z-1.0000 S1000
G1 F1000 X5.0162 Y25.1159 Z-1.0000 S1000
G1 F1000 X4.9815 Y25.1225 Z-1.0000 S1000
G1 F1000 X4.9469 Y25.1291 Z-1.0000 S1000
G1 F1000 X4.9122 Y25.1357 Z-1.0000 S1000
G1 F1000 X4.8776 Y25.1422 Z-1.0000 S1000
G1 F1000 X4.8429 Y25.1487 Z-1.0000 S1000
G1 F1000 X4.8082 Y25.1551 Z-1.0000 S1000
G1 F1000 X4.7734 Y25.1615 Z-1.0000 S1000
G1 F1000 X4.7387 Y25.1678 Z-1.0000 S1000
G1 F1000 X4.7039 Y25.1741 Z-1.0000 S1000
G1 F1000 X4.6692 Y25.1803 Z-1.0000 S1000
G1 F1000 X4.6345 Y25.1865 Z-1.0000 S1000
G1 F1000 X4.5998 Y25.1926 Z-1.0000 S1000
G1 F1000 X4.5651 Y25.1987 Z-1.0000 S1000
G1 F1000 X4.5303 Y25.2047 Z-1.0000 S1000
G1 F1000 X4.4956 Y25.2107 Z-1.0000 S1000
G1 F1000 X4.4608 Y25.2166 Z-1.0000 S1000
G1 F1000 X4.4260 Y25.2225 Z-1.0000 S1000
G1 F1000 X4.3912 Y25.2283 Z-1.0000 S1000
G1 F1000 X4.3563 Y25.2341 Z-1.0000 S1000
G1 F1000 X4.3215 Y25.2399 Z-1.0000 S1000
G1 F1000 X4.2866 Y25.2456 Z-1.0000 S1000
G1 F1000 X4.2518 Y25.2512 Z-1.0000 S1000
G1 F1000 X4.2170 Y25.2568 Z-1.0000 S1000
G1 F1000 X4.1822 Y25.2623 Z-1.0000 S1000
G1 F1000 X4.1474 Y25.2678 Z-1.0000 S1000
G1 F1000 X4.1125 Y25.2733 Z-1.0000 S1000
G1 F1000 X4.0777 Y25.2787 Z-1.0000 S1000
G1 F1000 X4.0428 Y25.2840 Z-1.0000 S1000
G1 F1000 X4.0079 Y25.2893 Z-1.0000 S1000
G1 F1000 X3.9730 Y25.2946 Z-1.0000 S1000
G1 F1000 X3.9381 Y25.2998 Z-1.0000 S1000
G1 F1000 X3.9031 Y25.3050 Z-1.0000 S1000
G1 F1000 X3.8682 Y25.3101 Z-1.0000 S1000
G1 F1000 X3.8333 Y25.3151 Z-1.0000 S1000
G1 F1000 X3.7984 Y25.3201 Z-1.0000 S1000
G1 F1000 X3.7635 Y25.3251 Z-1.0000 S1000
G1 F1000 X3.7286 Y25.3300 Z-1.0000 S1000
G1 F1000 X3.6937 Y25.3349 Z-1.0000 S1000
G1 F1000 X3.6587 Y25.3397 Z-1.0000 S1000
G1 F1000 X3.6237 Y25.3444 Z-1.0000 S1000
G1 F1000 X3.5888 Y25.3492 Z-1.0000 S1000
G1 F1000 X3.5538 Y25.3538 Z-1.0000 S1000
G1 F1000 X3.5187 Y25.3585 Z-1.0000 S1000
G1 F1000 X3.4837 Y25.3630 Z-1.0000 S1000
G1 F1000 X3.4488 Y25.3676 Z-1.0000 S1000
G1 F1000 X3.4138 Y25.3720 Z-1.0000 S1000
G1 F1000 X3.3788 Y25.3765 Z-1.0000 S1000
G1 F1000 X3.3439 Y25.3808 Z-1.0000 S1000
G1 F1000 X3.3088 Y25.3852 Z-1.0000 S1000
G1 F1000 X3.2738 Y25.3894 Z-1.0000 S1000
G1 F1000 X3.2388 Y25.3937 Z-1.0000 S1000
G1 F1000 X3.2037 Y25.3979 Z-1.0000 S1000
G1 F1000 X3.1687 Y25.4020 Z-1.0000 S1000
G1 F1000 X3.1336 Y25.4061 Z-1.0000 S1000
G1 F1000 X3.0985 Y25.4101 Z-1.0000 S1000
G1 F1000 X3.0635 Y25.4141 Z-1.0000 S1000
G1 F1000 X3.0284 Y25.4181 Z-1.0000 S1000
G1 F1000 X2.9934 Y25.4220 Z-1.0000 S1000
G1 F1000 X2.9584 Y25.4258 Z-1.0000 S1000
G1 F1000 X2.9233 Y25.4296 Z-1.0000 S1000
G1 F1000 X2.8882 Y25.4333 Z-1.0000 S1000
G1 F1000 X2.8531 Y25.4370 Z-1.0000 S1000
G1 F1000 X2.8180 Y25.4407 Z-1.0000 S1000
G1 F1000 X2.7829 Y25.4443 Z-1.0000 S1000
G1 F1000 X2.7478 Y25.4478 Z-1.0000 S1000
G1 F1000 X2.7126 Y25.4514 Z-1.0000 S1000
G1 F1000 X2.6775 Y25.4548 Z-1.0000 S1000
G1 F1000 X2.6424 Y25.4582 Z-1.0000 S1000
G1 F1000 X2.6073 Y25.4616 Z-1.0000 S1000
G1 F1000 X2.5722 Y25.4649 Z-1.0000 S1000
G1 F1000 X2.5371 Y25.4681 Z-1.0000 S1000
G1 F1000 X2.5020 Y25.4714 Z-1.0000 S1000
G1 F1000 X2.4669 Y25.4745 Z-1.0000 S1000
G1 F1000 X2.4317 Y25.4776 Z-1.0000 S1000
G1 F1000 X2.3966 Y25.4807 Z-1.0000 S1000
G1 F1000 X2.3614 Y25.4837 Z-1.0000 S1000
G1 F1000 X2.3262 Y25.4867 Z-1.0000 S1000
G1 F1000 X2.2910 Y25.4896 Z-1.0000 S1000
G1 F1000 X2.2558 Y25.4925 Z-1.0000 S1000
G1 F1000 X2.2207 Y25.4953 Z-1.0000 S1000
G1 F1000 X2.1855 Y25.4981 Z-1.0000 S1000
G1 F1000 X2.1504 Y25.5008 Z-1.0000 S1000
G1 F1000 X2.1152 Y25.5035 Z-1.0000 S1000
G1 F1000 X2.0801 Y25.5061 Z-1.0000 S1000
G1 F1000 X2.0449 Y25.5087 Z-1.0000 S1000
G1 F1000 X2.0097 Y25.5112 Z-1.0000 S1000
G1 F1000 X1.9745 Y25.5137 Z-1.0000 S1000
G1 F1000 X1.9392 Y25.5162 Z-1.0000 S1000
G1 F1000 X1.9040 Y25.5186 Z-1.0000 S1000
G1 F1000 X1.8687 Y25.5209 Z-1.0000 S1000
G1 F1000 X1.8335 Y25.5232 Z-1.0000 S1000
G1 F1000 X1.7984 Y25.5254 Z-1.0000 S1000
G1 F1000 X1.7632 Y25.5276 Z-1.0000 S1000
G1 F1000 X1.7280 Y25.5298 Z-1.0000 S1000
G1 F1000 X1.6928 Y25.5319 Z-1.0000 S1000
G1 F1000 X1.6576 Y25.5339 Z-1.0000 S1000
G1 F1000 X1.6224 Y25.5359 Z-1.0000 S1000
G1 F1000 X1.5871 Y25.5379 Z-1.0000 S1000
G1 F1000 X1.5519 Y25.5398 Z-1.0000 S1000
G1 F1000 X1.5166 Y25.5416 Z-1.0000 S1000
G1 F1000 X1.4813 Y25.5434 Z-1.0000 S1000
G1 F1000 X1.4461 Y25.5452 Z-1.0000 S1000
G1 F1000 X1.4108 Y25.5469 Z-1.0000 S1000
G1 F1000 X1.3756 Y25.5486 Z-1.0000 S1000
G1 F1000 X1.3404 Y25.5502 Z-1.0000 S1000
G1 F1000 X1.3052 Y25.5518 Z-1.0000 S1000
G1 F1000 X1.2700 Y25.5533 Z-1.0000 S1000
G1 F1000 X1.2347 Y25.5547 Z-1.0000 S1000
G1 F1000 X1.1995 Y25.5562 Z-1.0000 S1000
G1 F1000 X1.1642 Y25.5575 Z-1.0000 S1000
G1 F1000 X1.1289 Y25.5589 Z-1.0000 S1000
G1 F1000 X1.0936 Y25.5601 Z-1.0000 S1000
G1 F1000 X1.0583 Y25.5614 Z-1.0000 S1000
G1 F1000 X1.0230 Y25.5625 Z-1.0000 S1000
G1 F1000 X0.9878 Y25.5637 Z-1.0000 S1000
G1 F1000 X0.9526 Y25.5648 Z-1.0000 S1000
G1 F1000 X0.9173 Y25.5658 Z-1.0000 S1000
G1 F1000 X0.8821 Y25.5668 Z-1.0000 S1000
G1 F1000 X0.8469 Y25.5677 Z-1.0000 S1000
G1 F1000 X0.8116 Y25.5686 Z-1.0000 S1000
G1 F1000 X0.7763 Y25.5694 Z-1.0000 S1000
G1 F1000 X0.7410 Y25.5702 Z-1.0000 S1000
G1 F1000 X0.7057 Y25.5710 Z-1.0000 S1000
G1 F1000 X0.6704 Y25.5717 Z-1.0000 S1000
G1 F1000 X0.6351 Y25.5723 Z-1.0000 S1000
G1 F1000 X0.5998 Y25.5729 Z-1.0000 S1000
G1 F1000 X0.5645 Y25.5735 Z-1.0000 S1000
G1 F1000 X0.5293 Y25.5740 Z-1.0000 S1000
G1 F1000 X0.4941 Y25.5744 Z-1.0000 S1000
G1 F1000 X0.4588 Y25.5749 Z-1.0000 S1000
G1 F1000 X0.4235 Y25.5752 Z-1.0000 S1000
G1 F1000 X0.3883 Y25.5755 Z-1.0000 S1000
G1 F1000 X0.3530 Y25.5758 Z-1.0000 S1000
G1 F1000 X0.3177 Y25.5760 Z-1.0000 S1000
G1 F1000 X0.2824 Y25.5762 Z-1.0000 S1000
G1 F1000 X0.2471 Y25.5763 Z-1.0000 S1000
G1 F1000 X0.2117 Y25.5764 Z-1.0000 S1000
G1 F1000 X0.1764 Y25.5764 Z-1.0000 S1000
G1 F1000 X0.1764 Y0.1764 Z-1.0000 S1000
G1 F1000 X0.1764 Y0.1764 Z-1.0000 S1000
; retracting back to z-safe
G0 Z2

